X: 1280
T: Köprüden Geçti Gelin
C: Neşet Ertaş
O: Turkey
F: http://compmusic.upf.edu/node/140
N: huseyni--turku--sofyan--kopruden_gecti--kirsehir
N: makam= huseyni
N: form= turku
N: usul= sofyan = 4/4
M: 4/4
L: 1/16
K: C _2/4B ^3/4f  
Q: 1/4=66
%%MIDI tuningsystem comma53
g3/2f/g2 e2d2 e2z2 .e2.A2  | e2f2 g2z2 g2f2 .=f2.A2  | \
w:  ARANAĞME  |   | 
g3/2f/g2 e2d2 e2z2 .e2.A2  | 
w:  ARANAĞME  | 
e2f2 g2z2 g2f2 .=f2.A2  | g4 e4 d{e}cdc dcdc  | \
w:   |   | 
dcdc d2e2 e4 dcdc  | 
w:   | 
d/e3/2d2 c2B2 c/d3/2c2 _7/8B4  | A4 d3/2c/d/e3/2 (3d2c2d2 c2B2  | \
w:   |   | 
c/d3/2c2 _7/8B2A2 B/c3/2B/A3/2 z2BG  | 
w:   | 
A4 B2cd c4 _7/8B4  | B/c3/2B/A3/2 z2_7/8BA A8  | \
w:   |   | 
e=f{g}ef {g}ef{g}ef {g}e/f3/2de d4  | 
w:   | 
d/e3/2d2 c2B2 c/d3/2c2 _7/8B4  | A4 d3/2c/d/e3/2 (3d2c2d2 c2B2  | \
w:   |   | 
c/d3/2c2 _7/8B2A2 B/c3/2B/A3/2 z2BG  | 
w:   | 
A4 B2cd c4 _7/8B4  | _7/8B/c3/2B/A3/2 z2_2/4BG A6_7/8BG  | \
w:   |   | 
A4 z2_7/8BG A4 A2A2  | 
w:   | 
g4 e/=f/e/f/d2 e4 .e2.A2  | e2f2 g4 g2g2 =f3e  | \
w:  Köp rü *  *  *  *  den  SAZ  |  geç *  ti  ge lin    | 
g4 e/=f/e/f/d2 e4 .e2.A2  | 
w:  Köp rü *  *  *  *  den  SAZ  | 
e2f2 gga2 g4 =f3e  | g4 e2=fg e4 d4  | \
w:  geç *  ti  *  *  ge lin    |  Saç  ba *  *  ğı   | 
d2d2 e2=fg {f}ee3 dcde  | 
w:  düş *  tü  *  *  *  ge lin    | 
{e}d/c/d3 c2B2 c2c/d/B B2A2  | B2c2 d4 d4 dcB2  | \
w:  *  Di loy  *  *  *  loy    |  Hal *  dan  bil mez   | 
B1/4c3/4B2B B2BA A4 A2_7/8BG  | 
w:  di loy  *  *  *  *  *  loy    | 
A4 B2c2 c2B2 Bc2B  | BcA6 A4 A2_7/8BG  | \
w:  *  Söz_ an la *  maz   |  ne  *  fay da    | 
A4 z2_7/8BG A4 A2A2  | 
w:   | 
g4 e/=f/e/f/d2 e4 .e2.A2  | e2f2 g4 ggfg =f2e2  | \
w:  E ğil  *  *  *  *  bir  SAZ  |  yol_ *  ö pe yim    | 
g2=fg e/f/e/f/e/f/d e4 .e2.A2  | 
w:  E *  *  ğil  *  *  *  *  *  *  bir  SAZ  | 
e2f2 g4 g2g2 =f3e  | g4 e2=fg e4 d4  | \
w:  yol_ *  ö pe yim    |  Genç li *  *  ğim   | 
d4 e2=fg {f}ee3 dcde  | 
w:  geç ti  *  *  *  ge lin    | 
{e}d/c/d3 c2B2 c2c/d/B B2A2  | B2c2 d4 d4 dcB2  | \
w:  *  Di loy  *  *  *  loy    |  Hal *  dan  bil mez   | 
B1/4c3/4c2B B2BA A4 A2_7/8BG  | 
w:  di loy  *  *  *  *  *  loy    | 
A4 B2c2 c2B2 Bc2B  | BcA6 A4 A2_7/8BG  | \
w:  *  Söz_ an la *  maz   |  ne  *  fay da    | 
A4 z2_7/8BG A4 A2A2  | 
w:   | 
eee2 g=fg2 {f}ee3 dcde  | {e}d/c/d3 c2B2 c2c/d/B B2A2  | 
w:  Di loy  *  di loy  *  *  di loy   |  *  di loy  *  *  *  loy    | 
B2c2 d4 d4 dcB2  | B1/4c3/4c2B B2BA A4 A2_7/8BG  | \
w:  Hal *  dan  bil mez   |  di loy  *  *  *  *  *  loy    | 
A4 B2c2 c2B2 Bc2B  | 
w:  *  Söz_ an la *  maz   | 
BcA6 A8  | e=f{g}ef {g}ef{g}ef {g}e/f3/2de d4  | \
w:  ne  *  fay da    |   | 
d/e3/2d2 c2B2 c/d3/2c2 _7/8B4  | 
w:   | 
A4 d3/2c/d/e3/2 (3d2c2d2 c2B2  | c/d3/2c2 _7/8B2A2 B/c3/2B/A3/2 z2BG  | 
w:   |   | 
A4 B2cd c4 _7/8B4  | _7/8B/c3/2B/A3/2 z2_2/4BG A6_7/8BG  | \
w:   |   | 
A4 z2_7/8BG A4 A2A2  | 
w:   | 
g4 e/=f/e/f/d2 e4 .e2.A2  | e2f2 g4 g2g2 =f3e  | \
w:  Köp rü *  *  *  *  den  SAZ  |  geç *  ti  ge lin    | 
g4 e/=f/e/f/d2 e4 .e2.A2  | 
w:  Köp rü *  *  *  *  den  SAZ  | 
e2f2 gga2 g4 =f3e  | g4 e2=fg e4 d4  | \
w:  geç *  ti  *  *  ge lin    |  Saç  ba *  *  ğı   | 
d2d2 e2=fg {f}ee3 dcde  | 
w:  düş *  tü  *  *  *  ge lin    | 
{e}d/c/d3 c2B2 c2c/d/B B2A2  | B2c2 d4 d4 dcB2  | \
w:  *  Di loy  *  *  *  loy    |  Hal *  dan  bil mez   | 
B1/4c3/4B2B B2BA A4 A2_7/8BG  | 
w:  di loy  *  *  *  *  *  loy    | 
A4 B2c2 c2B2 Bc2B  | BcA6 A4 A2_7/8BG  | \
w:  *  Söz_ an la *  maz   |  ne  *  fay da    | 
A4 z2_7/8BG A4 A2A2  | 
w:   | 
g4 e/=f/e/f/d2 e4 .e2.A2  | e2f2 g4 ggfg =f2e2  | \
w:  E ğil  *  *  *  *  bir  SAZ  |  yol_ *  ö pe yim    | 
g2=fg e/f/e/f/e/f/d e4 .e2.A2  | 
w:  E *  *  ğil  *  *  *  *  *  *  bir  SAZ  | 
e2f2 g4 g2g2 =f3e  | g4 e2=fg e4 d4  | \
w:  yol_ *  ö pe yim    |  Genç li *  *  ğim   | 
d4 e2=fg {f}ee3 dcde  | 
w:  geç ti  *  *  *  ge lin    | 
{e}d/c/d3 c2B2 c2c/d/B B2A2  | B2c2 d4 d4 dcB2  | \
w:  *  Di loy  *  *  *  loy    |  Hal *  dan  bil mez   | 
B1/4c3/4c2B B2BA A4 A2_7/8BG  | 
w:  di loy  *  *  *  *  *  loy    | 
A4 B2c2 c2B2 Bc2B  | BcA6 A4 A2_7/8BG  | \
w:  *  Söz_ an la *  maz   |  ne  *  fay da    | 
A4 z2_7/8BG A4 A2A2  | 
w:   | 
eee2 g=fg2 {f}ee3 dcde  | {e}d/c/d3 c2B2 c2c/d/B B2A2  | 
w:  Di loy  *  di loy  *  *  di loy   |  *  di loy  *  *  *  loy    | 
B2c2 d4 d4 dcB2  | B1/4c3/4c2B B2BA A4 A2_7/8BG  | \
w:  Hal *  dan  bil mez   |  di loy  *  *  *  *  *  loy    | 
A4 B2c2 c2B2 Bc2B  | 
w:  *  Söz_ an la *  maz   | 
BcA6 A8  | |


